X:959
L:1/8
Q:1/8=150
M:4/4
K:G
"^BB arrangement" d | edBd G2 G2 | edBd A2 A2 | edBd Ggfd | edBG ABcd | edBd G2 G2 | edBd A2 A2 | 
 edBd Ggfe | dBAF G3 :| e | g2 ba gfeg | G2 ed efga | bgba gfed | efgB ABcd | g2 ba gfeg | 
 G2 ed efga | bgba gfe^c | dBAF G3 :|

